packages/calcite-ui-icons/icons/mosaic-method-lock-raster-16.svg

<?xml version="1.0" encoding="UTF-8"?><svg id="icons" xmlns="http://www.w3.org/2000/svg" viewBox="0 0 16 16"><defs><style>.cls-1{fill:none;}.cls-2{fill:#6f6f6f;opacity:.25;}.cls-3{opacity:.5;}</style></defs><path class="cls-2" d="M1.00049,1h1.99951v2h-1.99951c-.00018-.00031-.00031-.00049-.00049-.00079v-1.99841c.00018-.00031.00031-.00049.00049-.00079ZM4.00049,4c-.00018.00031-.00031.00049-.00049.00079v1.99841c.00018.00031.00031.00049.00049.00079h1.99951v-2h-1.99951Z"/><path d="M7,6v-2h2v.83221c.29108-.25366.6344-.45642,1-.62805V0H0v7h7.81323c.04712-.34875.13037-.68787.28217-1h-1.0954ZM7,1h2v2h-2V1ZM3,6H1v-2h2v2ZM3,3H1V1h2v2ZM6,6h-2v-2h2v2ZM6,3h-2V1h2v2ZM14.97522,9.00092v-1.57544c0-1.34161-1.33698-2.42548-2.98102-2.42548s-2.98096,1.08386-2.98096,2.42548v1.57776c-.55829.00909-1.01324.46558-1.01324,1.02606v4.94141c0,.5661.4632,1.0293,1.0293,1.0293h5.94141c.5661,0,1.0293-.4632,1.0293-1.0293v-4.94141c0-.56458-.46088-1.02582-1.02478-1.02838ZM9.97125,7.20734c0-.67047,1.20709-1.20734,2.02875-1.20734s2.03058.53687,2.03058,1.20734v1.79266h-1.03058v-.88562c0-.07263-.03235-.14795-.08673-.19617-.78625-.69794-1.55469-.211-1.81781-.00122-.06091.04858-.09546.11938-.09546.19727v.88574h-1.02875v-1.79266ZM15,15h-6v-5h6v5ZM12,14h-1v-3h1v1h1v1h-1v1Z"/><path class="cls-3" d="M4,1h2v2h-2V1ZM1,6h2v-2H1v2ZM7,4v2h1.0954c.21356-.43921.52271-.8349.9046-1.16779v-.83221h-2Z"/><rect class="cls-1" width="16" height="16"/></svg>

<svg xmlns="http://www.w3.org/2000/svg" viewBox="0 0 16 16"><path d="M1 1h2v2H1V1zm3 3v2h2V4H4z" fill="#6f6f6f" opacity=".25"/><path d="M7 6V4h2v.832a4.28 4.28 0 0 1 1-.628V0H0v7h7.813a3.26 3.26 0 0 1 .282-1H7zm0-5h2v2H7V1zM3 6H1V4h2v2zm0-3H1V1h2v2zm3 3H4V4h2v2zm0-3H4V1h2v2zm8.975 6V7.426c0-1.341-1.337-2.425-2.98-2.425S9.012 6.084 9.012 7.425v1.578A1.03 1.03 0 0 0 8 10.03v4.942C8 15.537 8.463 16 9.03 16h5.94c.567 0 1.03-.463 1.03-1.03v-4.94c0-.565-.46-1.027-1.025-1.03zM9.971 7.208C9.971 6.537 11.178 6 12 6s2.03.537 2.03 1.207V9H13v-.886a.268.268 0 0 0-.087-.196c-.786-.698-1.554-.21-1.818-.001a.25.25 0 0 0-.095.197V9H9.971V7.207zM15 15H9v-5h6v5zm-3-1h-1v-3h1v1h1v1h-1v1z"/><path d="M4 1h2v2H4V1zM1 6h2V4H1v2zm6-2v2h1.095c.214-.44.523-.835.905-1.168V4H7z" opacity=".5"/><path fill="none" d="M0 0h16v16H0z"/></svg>
